; generated by PrusaSlicer 2.5.0+win64 on 2022-11-23 at 21:58:56 UTC


;
;
; 

; external perimeters extrusion width = 0.45mm
; perimeters extrusion width = 0.45mm
; infill extrusion width = 0.45mm
; solid infill extrusion width = 0.45mm
; top infill extrusion width = 0.40mm
; first layer extrusion width = 0.42mm

M73 P0 R30
M73 Q0 S30
M201 X1000 Y1000 Z200 E5000 ; sets maximum accelerations, mm/sec^2
M203 X200 Y200 Z12 E120 ; sets maximum feedrates, mm / sec
M204 P1250 R1250 T1250 ; sets acceleration (P, T) and retract acceleration (R), mm/sec^2
M205 X8.00 Y8.00 Z0.40 E4.50 ; sets the jerk limits, mm/sec
M205 S0 T0 ; sets the minimum extruding and travel feed rate, mm/sec
M107 ; disable fan
;TYPE:Custom
M862.3 P "MK3S" ; printer model check
M862.1 P0.4 ; nozzle diameter check
M115 U3.11.0 ; tell printer latest fw version
G90 ; use absolute coordinates
M83 ; extruder relative mode
M104 S215 ; set extruder temp
M140 S60 ; set bed temp
M190 S60 ; wait for bed temp
M109 S215 ; wait for extruder temp
G28 W ; home all without mesh bed level
G80 ; mesh bed leveling

G1 Z0.2 F720
G1 Y-3 F1000 ; go outside print area
G92 E0
G1 X60 E9 F1000 ; intro line
G1 X100 E12.5 F1000 ; intro line

G92 E0
M221 S95

; Don't change E values below. Excessive value can damage the printer.
M907 E430 ; set extruder motor current
G21 ; set units to millimeters
G90 ; use absolute coordinates
M83 ; use relative distances for extrusion
M900 K0.05 ; Filament gcode LA 1.5
M900 K30 ; Filament gcode LA 1.0
M107 ; disable fan
;LAYER_CHANGE
;Z:0.2
;HEIGHT:0.2
;BEFORE_LAYER_CHANGE
G92 E0.0
;0.2


G1 E-.8 F2100 ; retract
G1 Z.4 F10800 ; lift Z
;AFTER_LAYER_CHANGE
;0.2
G1 X114.625 Y80.449 ; move to first skirt point
G1 Z.2 ; restore layer Z
G1 E.8 F2100 ;  ; unretract
M204 S1000 ; adjust acceleration
;TYPE:Skirt/Brim
;WIDTH:0.42
G1 F1200
G1 X115.367 Y79.532 E.03699 ; skirt
G1 X116.121 Y78.811 E.03269 ; skirt
G1 X116.851 Y78.254 E.0288 ; skirt
G1 X117.999 Y77.592 E.04157 ; skirt
G1 X119.333 Y77.08 E.04477 ; skirt
G1 X121.013 Y76.761 E.05363 ; skirt
G1 X128.455 Y76.729 E.23335 ; skirt
G1 X129.896 Y76.891 E.04546 ; skirt
G1 X131.534 Y77.384 E.05363 ; skirt
G1 X132.806 Y78.032 E.04478 ; skirt
G1 X133.973 Y78.892 E.04546 ; skirt
G1 X135.145 Y80.138 E.05363 ; skirt
G1 X135.864 Y81.226 E.04089 ; skirt
G1 X136.462 Y82.547 E.04546 ; skirt
G1 X136.832 Y83.926 E.04478 ; skirt
G1 X136.974 Y85.369 E.04545 ; skirt
G1 X136.974 Y124.631 E1.23103 ; skirt
M73 P0 R29
G1 X136.896 Y125.671 E.03269 ; skirt
G1 X136.726 Y126.573 E.0288 ; skirt
G1 X136.316 Y127.834 E.04156 ; skirt
G1 X135.864 Y128.774 E.03269 ; skirt
G1 X135.221 Y129.763 E.03699 ; skirt
G1 X134.633 Y130.468 E.0288 ; skirt
G1 X133.879 Y131.189 E.03269 ; skirt
G1 X132.806 Y131.968 E.04157 ; skirt
G1 X131.888 Y132.462 E.03269 ; skirt
G1 X130.273 Y133.026 E.05363 ; skirt
G1 X128.863 Y133.249 E.04477 ; skirt
G1 X121.66 Y133.274 E.22585 ; skirt
G1 X120.678 Y133.203 E.03085 ; skirt
G1 X119.161 Y132.868 E.04871 ; skirt
G1 X117.867 Y132.344 E.04379 ; skirt
G1 X116.902 Y131.78 E.03503 ; skirt
G1 X115.695 Y130.803 E.04869 ; skirt
G1 X114.773 Y129.754 E.04379 ; skirt
G1 X113.956 Y128.433 E.0487 ; skirt
G1 X113.432 Y127.138 E.0438 ; skirt
G1 X113.115 Y125.754 E.04453 ; skirt
G1 X113.026 Y124.64 E.03503 ; skirt
G1 X113.026 Y85.369 E1.23132 ; skirt
G1 X113.104 Y84.329 E.03269 ; skirt
G1 X113.274 Y83.427 E.0288 ; skirt
G1 X113.684 Y82.166 E.04156 ; skirt
G1 X114.136 Y81.227 E.03269 ; skirt
G1 X114.593 Y80.5 E.02692 ; skirt
;WIPE_START
G1 F8640
G1 X115.367 Y79.532 E-.28619 ; wipe and retract
G1 X116.121 Y78.811 E-.24075 ; wipe and retract
G1 X116.851 Y78.254 E-.21207 ; wipe and retract
G1 X116.93 Y78.209 E-.02099 ; wipe and retract
;WIPE_END
G1 E-.04 F2100 ; retract
G1 Z.6 F10800 ; lift Z
G1 X116.87 Y81.911 ; move to first brim point
G1 Z.2 ; restore layer Z
G1 E.8 F2100 ;  ; unretract
G1 F1200
G1 X116.944 Y81.792 E.0044 ; brim
G1 X117.795 Y80.885 E.03899 ; brim
G1 X118.774 Y80.192 E.0376 ; brim
G1 X119.873 Y79.702 E.03773 ; brim
G1 X121.086 Y79.433 E.03896 ; brim
G1 X122.287 Y79.411 E.03765 ; brim
G1 X123.399 Y79.603 E.0354 ; brim
G1 X124.373 Y79.958 E.03247 ; brim
G1 X124.966 Y80.302 E.0215 ; brim
G1 X126.121 Y79.755 E.04009 ; brim
G1 X127.505 Y79.43 E.04458 ; brim
G1 X128.742 Y79.415 E.03877 ; brim
G1 X129.774 Y79.596 E.03287 ; brim
G1 X130.769 Y79.956 E.03318 ; brim
G1 X131.869 Y80.615 E.04019 ; brim
G1 X132.818 Y81.499 E.04067 ; brim
G1 X133.466 Y82.402 E.03487 ; brim
G1 X133.935 Y83.395 E.03441 ; brim
G1 X134.253 Y84.674 E.04131 ; brim
G1 X134.305 Y85.749 E.03376 ; brim
G1 X134.16 Y86.842 E.03456 ; brim
G1 X133.752 Y88.051 E.04002 ; brim
G1 X133.201 Y89.009 E.03466 ; brim
G1 X133.351 Y89.215 E.00798 ; brim
G1 X133.884 Y90.264 E.03689 ; brim
G1 X134.2 Y91.349 E.03544 ; brim
G1 X134.311 Y92.478 E.03559 ; brim
G1 X134.153 Y93.875 E.04407 ; brim
G1 X133.8 Y94.942 E.03523 ; brim
G1 X133.4 Y95.675 E.02617 ; brim
G1 X133.946 Y96.824 E.03991 ; brim
G1 X134.216 Y97.839 E.03292 ; brim
G1 X134.31 Y98.916 E.0339 ; brim
G1 X134.178 Y100.164 E.03932 ; brim
G1 X133.83 Y101.271 E.03641 ; brim
G1 X133.393 Y102.097 E.02929 ; brim
G1 X133.888 Y103.076 E.0344 ; brim
G1 X134.205 Y104.174 E.03583 ; brim
G1 X134.309 Y105.443 E.03992 ; brim
G1 X134.169 Y106.602 E.0366 ; brim
G1 X133.857 Y107.605 E.03295 ; brim
G1 X133.389 Y108.493 E.03147 ; brim
G1 X133.874 Y109.438 E.0333 ; brim
G1 X134.213 Y110.616 E.03842 ; brim
G1 X134.307 Y111.903 E.04048 ; brim
G1 X134.152 Y113.079 E.03717 ; brim
G1 X133.816 Y114.105 E.03385 ; brim
G1 X133.398 Y114.877 E.02753 ; brim
G1 X133.867 Y115.82 E.03301 ; brim
G1 X134.218 Y117.045 E.03994 ; brim
G1 X134.307 Y118.3 E.03946 ; brim
G1 X134.153 Y119.475 E.03715 ; brim
G1 X133.792 Y120.56 E.03586 ; brim
G1 X133.391 Y121.296 E.02629 ; brim
G1 X133.89 Y122.275 E.03444 ; brim
G1 X134.221 Y123.463 E.03868 ; brim
G1 X134.302 Y124.837 E.04316 ; brim
G1 X134.146 Y125.903 E.03378 ; brim
M73 Q1 S30
G1 X133.808 Y126.927 E.03382 ; brim
G1 X133.04 Y128.23 E.04742 ; brim
G1 X132.254 Y129.07 E.03606 ; brim
M73 P1 R29
G1 X131.294 Y129.768 E.03725 ; brim
G1 X130.224 Y130.263 E.03696 ; brim
G1 X129.097 Y130.543 E.03642 ; brim
G1 X127.944 Y130.605 E.03618 ; brim
G1 X126.825 Y130.453 E.03543 ; brim
G1 X125.763 Y130.103 E.03504 ; brim
G1 X125.014 Y129.697 E.02671 ; brim
G1 X123.986 Y130.205 E.03597 ; brim
G1 X122.691 Y130.543 E.04198 ; brim
G1 X121.474 Y130.602 E.0382 ; brim
G1 X120.485 Y130.466 E.03131 ; brim
G1 X119.502 Y130.16 E.03226 ; brim
G1 X118.361 Y129.55 E.04059 ; brim
G1 X117.313 Y128.65 E.04329 ; brim
G1 X116.716 Y127.884 E.03047 ; brim
G1 X116.246 Y127.051 E.02999 ; brim
G1 X115.772 Y125.504 E.05071 ; brim
G1 X115.69 Y124.396 E.03485 ; brim
G1 X115.821 Y123.256 E.03599 ; brim
G1 X116.115 Y122.262 E.0325 ; brim
G1 X116.608 Y121.304 E.03377 ; brim
G1 X116.11 Y120.322 E.03455 ; brim
G1 X115.778 Y119.134 E.03867 ; brim
G1 X115.699 Y117.742 E.04371 ; brim
G1 X115.865 Y116.646 E.03477 ; brim
G1 X116.208 Y115.639 E.03334 ; brim
G1 X116.604 Y114.918 E.02579 ; brim
G1 X116.074 Y113.831 E.0379 ; brim
G1 X115.779 Y112.733 E.03566 ; brim
G1 X115.692 Y111.497 E.03883 ; brim
G1 X115.823 Y110.446 E.0332 ; brim
G1 X116.125 Y109.435 E.03309 ; brim
G1 X116.611 Y108.509 E.03279 ; brim
G1 X116.131 Y107.573 E.03299 ; brim
G1 X115.781 Y106.351 E.03985 ; brim
G1 X115.695 Y105.033 E.0414 ; brim
G1 X115.862 Y103.859 E.03719 ; brim
G1 X116.205 Y102.847 E.03349 ; brim
G1 X116.61 Y102.107 E.02646 ; brim
G1 X116.133 Y101.18 E.03267 ; brim
G1 X115.794 Y100.024 E.03777 ; brim
G1 X115.692 Y98.684 E.04215 ; brim
G1 X115.818 Y97.671 E.03199 ; brim
G1 X116.106 Y96.683 E.03228 ; brim
G1 X116.6 Y95.722 E.03389 ; brim
G1 X116.068 Y94.614 E.03851 ; brim
G1 X115.774 Y93.501 E.03611 ; brim
G1 X115.693 Y92.31 E.03742 ; brim
G1 X115.854 Y91.094 E.03848 ; brim
G1 X116.205 Y90.046 E.03463 ; brim
G1 X116.784 Y89.001 E.03745 ; brim
G1 X116.146 Y87.815 E.04223 ; brim
G1 X115.781 Y86.55 E.04128 ; brim
G1 X115.699 Y85.157 E.04376 ; brim
G1 X115.886 Y83.967 E.03778 ; brim
G1 X116.315 Y82.807 E.03879 ; brim
G1 X116.839 Y81.962 E.03115 ; brim
G1 X117.157 Y82.158 F10800 ; move to first brim point
M73 Q1 S29
G1 F1200
G1 X117.233 Y82.035 E.00454 ; brim
G1 X118.03 Y81.181 E.03662 ; brim
G1 X118.946 Y80.528 E.03527 ; brim
G1 X119.975 Y80.066 E.03538 ; brim
G1 X121.113 Y79.809 E.03659 ; brim
G1 X122.242 Y79.786 E.03538 ; brim
G1 X123.287 Y79.963 E.03323 ; brim
G1 X124.227 Y80.306 E.03137 ; brim
G1 X125.002 Y80.762 E.02819 ; brim
G1 X125.273 Y80.571 E.01039 ; brim
G1 X126.228 Y80.117 E.03316 ; brim
G1 X127.532 Y79.807 E.04203 ; brim
G1 X128.694 Y79.79 E.03645 ; brim
G1 X129.693 Y79.965 E.03178 ; brim
G1 X130.623 Y80.304 E.03104 ; brim
G1 X131.657 Y80.928 E.03787 ; brim
G1 X132.523 Y81.735 E.03712 ; brim
G1 X133.133 Y82.579 E.03266 ; brim
G1 X133.586 Y83.539 E.03328 ; brim
G1 X133.877 Y84.71 E.03784 ; brim
G1 X133.928 Y85.75 E.03263 ; brim
G1 X133.789 Y86.773 E.03236 ; brim
G1 X133.401 Y87.911 E.03772 ; brim
G1 X132.877 Y88.816 E.03279 ; brim
G1 X132.721 Y89.007 E.00771 ; brim
G1 X133.024 Y89.403 E.01564 ; brim
G1 X133.527 Y90.387 E.03463 ; brim
G1 X133.833 Y91.437 E.0343 ; brim
G1 X133.934 Y92.494 E.0333 ; brim
G1 X133.789 Y93.775 E.04041 ; brim
G1 X133.448 Y94.806 E.03407 ; brim
G1 X132.949 Y95.712 E.0324 ; brim
G1 X133.108 Y95.937 E.00864 ; brim
G1 X133.587 Y96.939 E.03484 ; brim
G1 X133.842 Y97.89 E.03086 ; brim
G1 X133.933 Y98.897 E.03169 ; brim
G1 X133.813 Y100.069 E.03695 ; brim
G1 X133.476 Y101.141 E.03524 ; brim
G1 X132.967 Y102.093 E.03384 ; brim
G1 X133.531 Y103.198 E.03891 ; brim
G1 X133.838 Y104.26 E.03467 ; brim
G1 X133.932 Y105.418 E.03641 ; brim
G1 X133.804 Y106.507 E.03438 ; brim
G1 X133.502 Y107.476 E.03184 ; brim
G1 X132.963 Y108.491 E.03604 ; brim
G1 X133.516 Y109.561 E.03778 ; brim
G1 X133.845 Y110.701 E.03719 ; brim
G1 X133.93 Y111.91 E.03802 ; brim
G1 X133.789 Y112.978 E.03376 ; brim
G1 X133.463 Y113.97 E.03275 ; brim
G1 X132.949 Y114.912 E.03363 ; brim
G1 X133.099 Y115.122 E.00808 ; brim
G1 X133.509 Y115.941 E.02873 ; brim
G1 X133.85 Y117.13 E.03877 ; brim
G1 X133.931 Y118.271 E.03587 ; brim
G1 X133.79 Y119.373 E.03485 ; brim
G1 X133.44 Y120.424 E.03473 ; brim
G1 X132.963 Y121.29 E.031 ; brim
G1 X133.532 Y122.395 E.03896 ; brim
G1 X133.853 Y123.545 E.03743 ; brim
G1 X133.926 Y124.802 E.03948 ; brim
G1 X133.776 Y125.832 E.03264 ; brim
G1 X133.457 Y126.789 E.03163 ; brim
G1 X132.75 Y127.989 E.04366 ; brim
G1 X132.018 Y128.776 E.03371 ; brim
G1 X131.087 Y129.453 E.03609 ; brim
G1 X130.114 Y129.902 E.03359 ; brim
G1 X129.057 Y130.168 E.03419 ; brim
G1 X127.977 Y130.229 E.03392 ; brim
G1 X126.893 Y130.082 E.03429 ; brim
G1 X125.899 Y129.751 E.03285 ; brim
G1 X124.992 Y129.254 E.03243 ; brim
G1 X124.829 Y129.367 E.00622 ; brim
G1 X123.87 Y129.845 E.03359 ; brim
G1 X122.651 Y130.168 E.03954 ; brim
G1 X121.507 Y130.226 E.03591 ; brim
G1 X120.552 Y130.095 E.03025 ; brim
G1 X119.632 Y129.806 E.03022 ; brim
G1 X118.59 Y129.249 E.03705 ; brim
G1 X117.598 Y128.403 E.04088 ; brim
G1 X117.037 Y127.686 E.02854 ; brim
G1 X116.585 Y126.883 E.0289 ; brim
G1 X116.146 Y125.456 E.04682 ; brim
G1 X116.067 Y124.387 E.03361 ; brim
G1 X116.193 Y123.317 E.03378 ; brim
G1 X116.471 Y122.387 E.03041 ; brim
G1 X117.033 Y121.306 E.03822 ; brim
G1 X116.468 Y120.201 E.03889 ; brim
G1 X116.147 Y119.052 E.03743 ; brim
G1 X116.075 Y117.778 E.04 ; brim
G1 X116.228 Y116.751 E.03257 ; brim
G1 X116.56 Y115.777 E.03226 ; brim
G1 X117.048 Y114.894 E.03164 ; brim
G1 X116.927 Y114.72 E.00665 ; brim
G1 X116.434 Y113.715 E.0351 ; brim
G1 X116.148 Y112.652 E.03451 ; brim
G1 X116.069 Y111.525 E.03544 ; brim
G1 X116.189 Y110.539 E.03114 ; brim
G1 X116.481 Y109.561 E.03199 ; brim
G1 X117.037 Y108.511 E.03725 ; brim
G1 X116.488 Y107.451 E.03743 ; brim
G1 X116.149 Y106.267 E.0386 ; brim
G1 X116.073 Y105.03 E.03888 ; brim
G1 X116.225 Y103.964 E.03377 ; brim
G1 X116.556 Y102.984 E.03241 ; brim
G1 X117.038 Y102.113 E.03122 ; brim
G1 X116.49 Y101.056 E.03731 ; brim
G1 X116.162 Y99.938 E.03655 ; brim
G1 X116.07 Y98.676 E.03967 ; brim
G1 X116.19 Y97.735 E.02975 ; brim
G1 X116.462 Y96.807 E.0303 ; brim
G1 X117.045 Y95.682 E.03975 ; brim
G1 X116.9 Y95.477 E.00786 ; brim
G1 X116.428 Y94.5 E.03402 ; brim
G1 X116.143 Y93.422 E.03496 ; brim
G1 X116.07 Y92.304 E.03512 ; brim
G1 X116.217 Y91.196 E.03504 ; brim
G1 X116.557 Y90.183 E.03351 ; brim
G1 X117.075 Y89.255 E.03332 ; brim
G1 X117.283 Y89.001 E.01029 ; brim
G1 X117.001 Y88.634 E.01453 ; brim
G1 X116.489 Y87.659 E.03453 ; brim
G1 X116.15 Y86.467 E.03884 ; brim
G1 X116.075 Y85.195 E.03997 ; brim
G1 X116.247 Y84.079 E.03541 ; brim
G1 X116.647 Y82.988 E.03643 ; brim
G1 X117.126 Y82.209 E.02866 ; brim
G1 X117.445 Y82.405 F10800 ; move to first brim point
G1 F1200
G1 X117.523 Y82.277 E.00468 ; brim
G1 X118.266 Y81.476 E.03426 ; brim
G1 X119.119 Y80.864 E.03293 ; brim
G1 X120.078 Y80.429 E.03302 ; brim
G1 X121.142 Y80.186 E.03421 ; brim
G1 X122.198 Y80.161 E.03312 ; brim
G1 X123.174 Y80.324 E.03104 ; brim
G1 X124.081 Y80.654 E.03026 ; brim
G1 X125.024 Y81.214 E.03438 ; brim
G1 X125.452 Y80.903 E.01657 ; brim
G1 X126.372 Y80.466 E.03195 ; brim
G1 X127.559 Y80.183 E.03827 ; brim
G1 X128.648 Y80.165 E.03415 ; brim
G1 X129.58 Y80.325 E.02963 ; brim
G1 X130.477 Y80.652 E.02994 ; brim
G1 X131.415 Y81.217 E.03436 ; brim
G1 X132.229 Y81.971 E.03476 ; brim
G1 X132.817 Y82.786 E.03151 ; brim
G1 X133.237 Y83.682 E.03104 ; brim
G1 X133.502 Y84.748 E.03443 ; brim
G1 X133.552 Y85.718 E.03046 ; brim
G1 X133.426 Y86.67 E.0301 ; brim
G1 X133.065 Y87.739 E.03536 ; brim
G1 X132.561 Y88.609 E.03155 ; brim
G1 X132.23 Y88.992 E.01585 ; brim
G1 X132.698 Y89.592 E.02386 ; brim
G1 X133.17 Y90.511 E.0324 ; brim
G1 X133.46 Y91.491 E.03203 ; brim
G1 X133.556 Y92.51 E.03211 ; brim
G1 X133.425 Y93.675 E.03675 ; brim
G1 X133.095 Y94.671 E.03289 ; brim
G1 X132.63 Y95.509 E.03005 ; brim
G1 X132.475 Y95.706 E.00786 ; brim
G1 X132.776 Y96.118 E.01601 ; brim
G1 X133.227 Y97.054 E.03259 ; brim
G1 X133.474 Y97.972 E.02978 ; brim
G1 X133.556 Y98.911 E.02958 ; brim
G1 X133.447 Y99.974 E.03349 ; brim
G1 X133.121 Y101.011 E.03406 ; brim
G1 X132.665 Y101.858 E.03018 ; brim
G1 X132.475 Y102.097 E.00958 ; brim
G1 X132.698 Y102.393 E.01161 ; brim
G1 X133.187 Y103.352 E.03378 ; brim
G1 X133.47 Y104.345 E.03238 ; brim
G1 X133.555 Y105.393 E.03296 ; brim
G1 X133.439 Y106.412 E.03214 ; brim
G1 X133.148 Y107.347 E.0307 ; brim
G1 X132.634 Y108.305 E.0341 ; brim
G1 X132.478 Y108.503 E.0079 ; brim
G1 X132.719 Y108.826 E.01261 ; brim
G1 X133.172 Y109.715 E.0313 ; brim
G1 X133.477 Y110.785 E.03488 ; brim
G1 X133.553 Y111.881 E.03445 ; brim
G1 X133.425 Y112.878 E.03151 ; brim
G1 X133.111 Y113.836 E.03162 ; brim
G1 X132.63 Y114.708 E.03122 ; brim
G1 X132.474 Y114.907 E.00795 ; brim
G1 X132.77 Y115.307 E.01559 ; brim
G1 X133.164 Y116.094 E.02761 ; brim
G1 X133.475 Y117.177 E.03533 ; brim
G1 X133.554 Y118.242 E.03348 ; brim
G1 X133.418 Y119.307 E.03365 ; brim
G1 X133.088 Y120.287 E.03243 ; brim
G1 X132.641 Y121.093 E.02892 ; brim
G1 X132.476 Y121.301 E.00829 ; brim
G1 X132.702 Y121.603 E.01183 ; brim
G1 X133.174 Y122.515 E.03219 ; brim
G1 X133.484 Y123.627 E.03618 ; brim
G1 X133.55 Y124.767 E.03583 ; brim
G1 X133.413 Y125.729 E.03046 ; brim
G1 X133.105 Y126.651 E.03047 ; brim
G1 X132.459 Y127.748 E.03992 ; brim
G1 X131.78 Y128.483 E.03137 ; brim
G1 X130.91 Y129.119 E.03378 ; brim
G1 X130.004 Y129.541 E.03136 ; brim
G1 X129.017 Y129.793 E.03192 ; brim
G1 X127.974 Y129.851 E.03275 ; brim
G1 X126.963 Y129.711 E.03202 ; brim
G1 X126.036 Y129.399 E.03066 ; brim
G1 X125.214 Y128.946 E.02942 ; brim
G1 X124.996 Y128.777 E.00865 ; brim
G1 X124.642 Y129.039 E.01379 ; brim
G1 X123.754 Y129.486 E.03119 ; brim
G1 X122.611 Y129.792 E.0371 ; brim
G1 X121.54 Y129.85 E.03363 ; brim
G1 X120.649 Y129.73 E.02817 ; brim
G1 X119.762 Y129.451 E.02917 ; brim
G1 X118.818 Y128.949 E.03353 ; brim
G1 X117.883 Y128.155 E.03845 ; brim
G1 X117.343 Y127.465 E.02747 ; brim
G1 X116.924 Y126.716 E.02692 ; brim
G1 X116.521 Y125.407 E.04297 ; brim
G1 X116.445 Y124.377 E.03237 ; brim
G1 X116.559 Y123.408 E.0306 ; brim
